X:1
T:Gldjens blomster
R:Visa
Z:Klas Krantz, 2006
L:1/8
M:3/4
K:Gm
"Gm"G>AB2G>B | "D7"A>^FD2F>G | "Cm"A>B"Gm"G4 :|
"Gm"B>cd2B>d | d>d"D7"A2d2- | d2"Cm"cB "C#dim"A>G | "D"G2^F4 |
|:"Gm"GA BA "Cm"cB | AG "C#dim"BA G^F | "D7"^F2"Gm"G4 :|]
